X: 761
T: A Trip to Kew
N: Pub: J. Walsh, London, 1748
Z: 2012 John Chambers <jc:trillian.mit.edu>
S: 4: ACMV  http://archive.org/details/acompositemusicv01rugg p.2:12
M: C|
L: 1/8
K: G
% - - - - - - - - - - - - - - - - - - - - - - - - -
V: 1
|: G2G>B d>eg>d | e>dg>d Te>de>g | G2G>B d>eg>d | e/f/g dB TA>G E2 :|
|: g>ab>g a>eg>d | B>d-d>e =f>ge>d | g>a (b/a/g) (a/g/e) g>d | e/f/g dB TA>G E2 :|
% - - - - - - - - - - - - - - - - - - - - - - - - -
V: 2 clef=bass middle=d
|: g2G2 g2B2 | c2B2 c2G2 | g2G2 g2B2 | c2d2 e2E2 :|
|: g2G2 c2B2 | g2G2 d2G2 | g2G2 c2B2 | c2d2 e2E2 :|
% - - - - - - - - - - - - - - - - - - - - - - - - -
%%begintext align
%% Cast off two Cu. .|
%% cast up again, cross over two cu. .|.
%% Lead up to the top foot it and cast off :|:
%% Foot it corners and turn .|.
%% Lead outsides and turn :|:
%%endtext

%%sep 1 1 500
%%sep 1 1 500
